Dominus_Dark_Funeral/symbolic/actions/folder-new-symbolic.svg

<svg xmlns="http://www.w3.org/2000/svg" width="24" height="24" version="1"><path fill="gray" d="M12.109 1.571c-3.405 0-7.995 3.313-8.072 6.104-.083 3.036-.297 8.53-.458 12.748H1.5v2.76h21.347v-2.76h-2.24c-.152-4.913-.322-10.574-.45-12.748-.17-2.91-4.643-6.104-8.047-6.104zm0 1.577c2.56 0 6.486 2.928 6.478 5.456-.024 1.722.064 5.676.046 11.819H5.544l.009-.011c-.04-6.609.102-11.87.102-11.87 0-2.444 3.893-5.394 6.454-5.394zM10.554 6.28v3.395H7.159v3.223h3.395v3.396h3.224v-3.396h3.395V9.674h-3.395V6.279z"/></svg>

<?xml version="1.0" encoding="UTF-8" standalone="no"?>
<svg
   xmlns:dc="http://purl.org/dc/elements/1.1/"
   xmlns:cc="http://creativecommons.org/ns#"
   xmlns:rdf="http://www.w3.org/1999/02/22-rdf-syntax-ns#"
   xmlns:svg="http://www.w3.org/2000/svg"
   xmlns="http://www.w3.org/2000/svg"
   xmlns:sodipodi="http://sodipodi.sourceforge.net/DTD/sodipodi-0.dtd"
   xmlns:inkscape="http://www.inkscape.org/namespaces/inkscape"
   width="24"
   height="24"
   version="1"
   id="svg4"
   sodipodi:docname="folder-new-symbolic.svg"
   inkscape:version="0.92.4 (5da689c313, 2019-01-14)">
  <metadata
     id="metadata10">
    <rdf:RDF>
      <cc:Work
         rdf:about="">
        <dc:format>image/svg+xml</dc:format>
        <dc:type
           rdf:resource="http://purl.org/dc/dcmitype/StillImage" />
        <dc:title></dc:title>
      </cc:Work>
    </rdf:RDF>
  </metadata>
  <defs
     id="defs8" />
  <sodipodi:namedview
     pagecolor="#ffffff"
     bordercolor="#666666"
     borderopacity="1"
     objecttolerance="10"
     gridtolerance="10"
     guidetolerance="10"
     inkscape:pageopacity="0"
     inkscape:pageshadow="2"
     inkscape:window-width="1112"
     inkscape:window-height="480"
     id="namedview6"
     showgrid="false"
     inkscape:zoom="9.8333333"
     inkscape:cx="1.0677966"
     inkscape:cy="12"
     inkscape:window-x="0"
     inkscape:window-y="25"
     inkscape:window-maximized="0"
     inkscape:current-layer="svg4" />
  <path
     d="M 12.109,1.571 C 8.704,1.571 4.114,4.884 4.037,7.675 3.954,10.711 3.74,16.205 3.579,20.423 H 1.5 v 2.76 h 21.347 v -2.76 h -2.24 C 20.455,15.51 20.285,9.849 20.157,7.675 19.987,4.765 15.514,1.571 12.11,1.571 Z m 0,1.577 c 2.56,0 6.486,2.928 6.478,5.456 -0.024,1.722 0.064,5.676 0.046,11.819 H 5.544 L 5.553,20.412 C 5.513,13.803 5.655,8.542 5.655,8.542 5.655,6.098 9.548,3.148 12.109,3.148 Z M 10.554,6.28 V 9.675 H 7.159 v 3.223 h 3.395 v 3.396 h 3.224 v -3.396 h 3.395 V 9.674 H 13.778 V 6.279 Z"
     id="path2"
     inkscape:connector-curvature="0"
     style="fill:#808080" />
</svg>
